X:44
T:Fuller The Fiddler
M:6/8
L:1/8
C: Paul Gitlitz 2007
R:Jig
B:Anna's Smile
N: Written For Steve Fuller, Hamilton, Ontario's most well loved Fiddler. A generous and talented guy. 
K:A
E|"A"EcB ABA|"F#m"AGF "A"EFG|AcB ABA|"A"AGA "E"BGE|!
"A"EcB A2A|"A"ABc "D"d2c/d/|"A"ecf "E"edB|1"E"GAB "A"A2:|2"E"GAB "A"A2c/d/|! 
|:"A"ecf ecf|edc"E"B2c/d/|efg "A"aba|"E"({ga}g)ee e2c/d/|!
"A"ecA "F#m"FAf|"E"efg "F#m"a2f|"A"ece "D"({fa}f)df| "E"gfg "A"a3:|]
